X:6
T:Alma Redemptoris Mater
T:Bassus part
C:Tom\'as Luis de Victoria (1548-1611)
O:Florigelium sacrarum cantionum, Petri Phalesij, 1609
L:1/8
M:4/2
%%measurenb 0
%%squarebreve
%%scale 0.8
%%newpage 1
%%continueall true
%%footer "$T (Bassus)	Page $P	Gumbleton Music, 2011\n"
K:F clef=bass
z16| z8 z4 z2 C2-|C2 C2 F,4 G,4 A,4 |
w:Re - dem-pto - ris
%7
B,6 A,2 G,4 C,4 |F,4 z4  z4 z2 F,2-|F,2 F,2 B,,4 F,4 C,4 |
w:Ma --- ter, Re - dem-pto-ris Ma-
%13
F,8  z8|z16 | z4 F,4  G,3 G, A,4 |
w:ter, quae per-vi-a
%19
B,3 A,B,C D2 C4 F,4 | z4 z2 A,2  B,2 C2 D4 | C4 z4 z4 z2 C,2 |
w:coe ----- li por-ta ma - nes, por-
%25
D,2 E,2 F,6 E,2 D,4 |C,4 z4  z2 F,2 G,2 A,2 |B,6 A,2 G,4 F,4 |
w:ta ma --- nes, por-ta ma --- nes.
%31
z8  z4 C4-|C4 =B,4  C4 A,4 | G,4 z4  F,8 |
w:Et_ stel-la ma-ris et
E,4 F,4  D,4 C,4 | z8 C,4 F,4 | C,4 z4  z4 z2 A,2 |
w: stel-la ma-ris suc-cur-re, suc-
B,4 B,2 A,2  G,4 F,4 | z2 C,2 F,4  F,2 E,2 D,4 | C,4 F,3 F,  G,4 A,3 A,|
w:cur-re ca-den-ti, suc-cur-re ca-den-ti. Sur-ge-re, sur-ge-
B,4 C3 C  F,4 z4 | z8  z4 C,4 | F,3 E, D,3 C, B,,4 F,4 |
w:re, sur-ge-re qui cu ---- rat,
C,6 C,2  F,8 || [Q:"Secunda pars"]z16|z8 F,6 E,2 |
w:po-pu-lo: Tu quae
  D,2 C,2 D,E, F,4 E,2 F,3 E, |D,4 C,4 F,4 z4 | z8  F,8|
w:ge-nu-i ------- sti, na-
%67
F,4 D,4  B,,8 | C,8  F,8-|F,8  z8 |
w:tu-ra mi-ran-te_
%73
z8 F,4 G,2 B,2-|B,2 A,2 B,2 D2 C4 F,4| z8 z4 G,4 |
w:tu-um san - ctum Ge-ni-to-rem, Ge-
%79
  C,4 F,6 E,2 D,4-|D,4 C,8 F,4-|F,4 D,8 B,,4-|
w:ni-to   -   -    -  rem, vir -    go pri-
%85
B,,4 F,4 z4 z2 F,2-|F,2 G,2 A,2 F,2  C3 C F,2 F,2 | G,2 A,2 B,6 A,2 G,4-|
w: - us ac_ po-ste -- ri-us, ac po - ste --
%91
G,2 G,2 F,4  z2 F,4 F,2 | G,4 E,2 E,2  F,3 E, D,4 | G,4 C,2 C4 C2 D4 |
w:- ri-us, Ga-bri-e-lis ab o ---re, Ga- bri-e-
%97
B,2 B,2 C4 F,4 z2 F,2-|F,2 E,D, E,2 F,2 B,,2 B,4 D2 |C6 F,2  z2 G,2 G,2 B,2-|
w:lis ab o-re. Su -----mens il-lud A-ve, su-mens il-
%103
B,2 A,G, A,2 A,2 B,3 A, G,4-|G,4 F,8 B,,4-|B,,12 C,4-|C,4 z2 F,2 \
w:---- lud A --- ve, A - ve,_ pec-
%110
G,4 A,4 | D,2 D4 C2  B,4 A,4 | z8  F,4 G,4 | A,4 D,4 G,4 C,4 |
w:ca-to-rum mi-se-re-re, pec-ca-to-rum mi-se-
F,6 E,2 D,4 C,4 | F,4 z2 F,3 E,D,C, B,,2 A,,2 |B,,4 F,12|]
w:re ---re, mi ----se-re-re.
